X:1
T:Endresen 13
M:2/4
L:1/8
Q:1/4=60
K:D
F/G/ | AA/A/ FD | AA/A/ Bc | dd/d/ cB | A2 z F/G/ |
AA/A/ FD | BB/B/ GE | AA/A/ Bc | d2 z D/E/ | FF/F/ FB |
AG FD/E/ | FF/F/ Fd | cB AF/G/ | AA/A/ FD | BB/B/ G E |
AA/A/ Bc | d2 z D | [K:G] G2 A2 | BG cB | A2 G2 | FE DD | G2 A2 |
BG cA | d z DD | G2 z B | B2 BB | B2 AG | G2 FE | ^D2 (cB) |
B2 BB | c2 BA | G2 F2 | E2 z D | G2 A2 | BG cB | A2 G2 |
FE DD | G2 A2 | BG cA | d z DD | G2 z F/G/ | [K:D] AA/A/ FD | 
AA/A/ Bc | dd/d/ cB | A2 z F/G/ | AA/A/ FD | BB/B/ GE | 
AA/A/ Bc | d2 z D/E/ | FF/F/ FB | AG FD/E/ | FF/F/ Fd | cB AF/G/ |
AA/A/ FD | BB/B/ GE | AA/A/ Bc | dc/B/ AF/G/ | AA/A/ Bc |
dc/B/ Ac | dc/B/ Ac | dc/B/ Ac | d2 z2 | f2 z2 | D4- | D2 z2 |]

